!!!Rep U0668
!!!Isim(Name): Kemend Attım Dala Ben 
!!!Yore(Region): Erzincan
!!!Makam: Hüseyni
!!!Arizalar(Accidentals): b-2
!!!Usul: 2/4
**kern	**Dcent
*staff1	*.
=1-	=1-
*clefG2	*.
*k[b-]	*.
*M2/4	*.
8r	.
16ff#	0
16gg	0
16gg	0
16ff#	0
16gg	0
16ff#	0
=2	=2
16gg	0
16ff#	0
4ee	0
16ee	0
16dd	0
=3	=3
16gg	0
16ff#	0
4ee	0
16ee	0
16dd	0
=4	=4
16ff#	0
16gg	0
16aa	0
16ff#	0
16gg	0
16ee	0
16ee	0
16dd	0
=5	=5
!!linebreak:default
16ee	0
16cc	0
4.dd	0
=6	=6
16dd	0
8ee	0
16dd	0
8gg	0
16dd	0
16cc	0
=7	=7
16dd	0
16b-	50
4cc	0
8b-	50
=8	=8
16b-	50
16cc	0
8dd	0
16dd	0
16b-	50
16cc	0
16b-	50
=9	=9
!!linebreak:default
16cc	0
16b-	50
4b-	50
8a	0
=10	=10
16a	0
8a	0
16cc	0
16b-	50
16b-	50
8a	0
=11	=11
*MX/X	*.
8ddQ	0
4.aQ;	0
16ff#Q	0
16ggQ	0
16aaQ	0
16ff#Q	0
16ggQ	0
16ff#Q	0
4ggQ;	0
*-	*-
!! Uzun Hava Humdrum Bilgi Bankasi (Uzun Hava Humdrum Database)
!! 
!! Sertan Senturk, Parag Chordia & Erdal Tugcular
!! Georgia Tech Center for Music Technology, 2011
